X:95
T:Reels simple chords 87
M:3/4
L:1/8
K:G
d2 [g2G,2B,2D2] d2 | B2 dB [EE,G,B,]F | GA B4 | [c2C,2E,2G,2] A2 A2 | G2 [AD,F,A,C]D BD |
cD dD [g2G,2B,2D2] | d2 d2 Bd | [cC,E,G,]A BG A2 | D2 [EE,G,B,]F GA |
B2 c2 [AD,F,A,]D | cA G2 d2 | [g2G,2B,2D2] d2 B2 | dB [EE,G,B,]F GA |
B4 [c2C,2E,2G,2] | A2 A2 G2 | [AD,F,A,C]D BD cD | dD [g2G,2B,2D2] d2 |
d2 Bd [cC,E,G,]A | BG A2 D2 | [EE,G,B,]F GA B2 | c2 [AD,F,A,]D cA |
G2 FG [A2D,2F,2A,2] | D2 D2 c2 | [B2G,2B,2D2] G2 G3 |F [EA,^CEG]F GA |
BA B^c [d2D,2F,2A,2] | d2 d2 ef | [g2G,2B,2D2] d2 d2 | Bd [cC,E,G,]A BG |
A2 D2 [EE,G,B,]F | GA B2 c2 | [AD,F,A,]D cA G2 | FG [A2D,2F,2A,2] D2 |
D2 c2 [B2G,2B,2D2] | G2 G2>F2 | [EA,^CEG]F GA BA | B^c [d2D,2F,2A,2] d2 |
d2 ef [g2G,2B,2D2] | d2 d2 Bd | [cC,E,G,]A BG A2 | D2 [EE,G,B,]F GA |
B2 c2 [AD,F,A,]D | cA G2 |


